localPackages/DesignSystem/Sources/DesignSystem/Resources/Assets.xcassets/IconSet/ic-chevron-square-right.imageset/ic-chevron-square-right.svg

<svg width="24" height="24" viewBox="0 0 24 24" fill="none" xmlns="http://www.w3.org/2000/svg">
<g id="ic-chevron-square-right">
<g id="Icon">
<path fill-rule="evenodd" clip-rule="evenodd" d="M16.5 21V3H4.5C3.67157 3 3 3.67157 3 4.5V19.5C3 20.3284 3.67157 21 4.5 21H16.5ZM4.5 22.5C2.84315 22.5 1.5 21.1569 1.5 19.5V4.5C1.5 2.84315 2.84315 1.5 4.5 1.5H19.5C21.1569 1.5 22.5 2.84315 22.5 4.5V19.5C22.5 21.1569 21.1569 22.5 19.5 22.5H4.5ZM18 3H19.5C20.3284 3 21 3.67157 21 4.5V19.5C21 20.3284 20.3284 21 19.5 21H18V3Z" fill="#0F0F0F"/>
<path fill-rule="evenodd" clip-rule="evenodd" d="M6.96967 6.96967C7.26256 6.67678 7.73744 6.67678 8.03033 6.96967L12.5303 11.4697C12.671 11.6103 12.75 11.8011 12.75 12C12.75 12.1989 12.671 12.3897 12.5303 12.5303L8.03033 17.0303C7.73744 17.3232 7.26256 17.3232 6.96967 17.0303C6.67678 16.7374 6.67678 16.2626 6.96967 15.9697L10.9393 12L6.96967 8.03033C6.67678 7.73744 6.67678 7.26256 6.96967 6.96967Z" fill="#0F0F0F"/>
</g>
</g>
</svg>

<svg xmlns="http://www.w3.org/2000/svg" width="24" height="24" viewBox="0 0 24 24">
  <g class="ic-chevron-square-right">
    <g class="Icon">
      <path fill-rule="evenodd" d="M16.5 21V3h-12A1.5 1.5 0 0 0 3 4.5v15A1.5 1.5 0 0 0 4.5 21h12Zm-12 1.5a3 3 0 0 1-3-3v-15a3 3 0 0 1 3-3h15a3 3 0 0 1 3 3v15a3 3 0 0 1-3 3h-15ZM18 3h1.5A1.5 1.5 0 0 1 21 4.5v15a1.5 1.5 0 0 1-1.5 1.5H18V3Z"/>
      <path fill-rule="evenodd" d="M6.97 6.97a.75.75 0 0 1 1.06 0l4.5 4.5a.75.75 0 0 1 0 1.06l-4.5 4.5a.75.75 0 0 1-1.06-1.06L10.94 12 6.97 8.03a.75.75 0 0 1 0-1.06Z"/>
    </g>
  </g>
</svg>
